!!!!SEGMENT: Fsc2020-Sub_tuum_presedium.krn
!!!id: Fsc2020
!!!AGN: Motet
!!!SCT: Seay (1977)
!!!voices: 4
!!!COM: Costnazo Festa
!!!OTL: Sub tuum presedium
**kern	**kern	**kern	**kern
*part4	*part3	*part2	*part1
*staff4	*staff3	*staff2	*staff1
*I"Bassus	*I"Tenor	*I"Altus	*I"Superius
*I'B	*I'T	*I'A	*I'S
*clefF4	*clefGv2	*clefGv2	*clefG2
*k[]	*k[]	*k[]	*k[]
*C:	*C:	*C:	*C:
*M2/1	*M2/1	*M2/1	*M2/1
*met(C|)	*met(C|)	*met(C|)	*met(C|)
!!Section: Prima pars: Sub tuum presedium
!!!OMD: Prima pars: Sub tuum presedium
=1	=1	=1	=1
0D	0r	0r	0r
=2	=2	=2	=2
1C	0r	0r	0r
[1D	.	.	.
=3	=3	=3	=3
2D]	0A	0r	0r
2D	.	.	.
1C	.	.	.
=4	=4	=4	=4
1BB	1G	0d	0r
[1AA	[1A	.	.
=5	=5	=5	=5
1AA]	2A]	1c	0r
.	2A	.	.
1r	1G	[1d	.
=6	=6	=6	=6
0r	1F	2d]	0a
.	.	2d	.
.	[1E	1c	.
=7	=7	=7	=7
0r	1E]	1B	1g
.	1r	[1A	[1a
=8	=8	=8	=8
1AA	0r	1A]	2a]
.	.	.	2a
1C	.	1r	1g
=9	=9	=9	=9
1D	1F	1A	1f
1C	1G	[1c	1e
=10	=10	=10	=10
0r	1A	1c]	2r
.	.	.	2e
.	2G	1d	1g
.	2B	.	.
=11	=11	=11	=11
1AA	2A	2c	1a
.	2.c	2.e	.
1E	.	.	2g
.	4B	4d	.
.	2G	[2c	[2e
=12	=12	=12	=12
1F	1A	2c]	2e]
.	.	4B	2d
.	.	4A	.
[1E	[1B	1G	[1e
=13	=13	=13	=13
0E]	2B]	2r	0e_
.	2G	1B	.
.	1G	.	.
.	.	2B	.
=14	=14	=14	=14
2r	0r	1c	1e]
1E	.	.	.
.	.	1B	1r
2E	.	.	.
=15	=15	=15	=15
1F	0r	2A	0r
.	.	2.d	.
2E	.	.	.
.	.	4c	.
[2D	.	[2B	.
=16	=16	=16	=16
4D]	0r	4B]	0r
4C	.	4A	.
4BB	.	1A	.
4AA	.	.	.
1BB	.	.	.
.	.	2G#i	.
=17	=17	=17	=17
0AA	0r	1A	2r
.	.	.	1e
.	.	[1c	.
.	.	.	2e
=18	=18	=18	=18
1FF	1.A	1c]	1f
1AA	.	1c	1e
.	2A	.	.
=19	=19	=19	=19
1GG	1B	1d	1g
2AA	2A	2c	2f
[2C	[2G	[2c	[2e
=20	=20	=20	=20
2C]	4G]	4c]	4e]
.	4F	4B	4d
2D	4E	4A	1d
.	4D	4G	.
1AA	1E	1A	.
.	.	.	2c#i
=21	=21	=21	=21
0D	[0D	1A	0d
.	.	1r	.
=22	=22	=22	=22
0r	0D_	1A	1r
.	.	1D	1a
=23	=23	=23	=23
0r	0D]	2r	1d
.	.	1d	.
.	.	.	[1a
.	.	2d	.
=24	=24	=24	=24
0r	0r	2c	2a]
.	.	2A	2a
.	.	2B	1g
.	.	[2c	.
=25	=25	=25	=25
1r	1A	4c]	1e
.	.	4d	.
.	.	4e	.
.	.	4c	.
1A	1D	4d	1f
.	.	4A	.
.	.	[2d	.
=26	=26	=26	=26
1AA	1.A	2d]	1e
.	.	2c#i	.
1D	.	1d	1r
.	2A	.	.
=27	=27	=27	=27
2E	1G	1r	0r
1C	.	.	.
.	1E	1e	.
2AA	.	.	.
=28	=28	=28	=28
0D	0F	2A	1a
.	.	1d	.
.	.	.	1d
.	.	2d	.
=29	=29	=29	=29
1AA	1E	1.c	1.a
2r	2F	.	.
2AA	[2E	2A	2a
=30	=30	=30	=30
1E	4E]	2B	1g
.	4F	.	.
.	1G	2.e	.
2C	.	.	1e
.	.	4d	.
2AA	[2A	[2c	.
=31	=31	=31	=31
0D	4A]	2c]	0f
.	4G	.	.
.	4F	4B	.
.	4E	4A	.
.	1F	1B	.
=32	=32	=32	=32
0C	0G	0c	[0e
=33	=33	=33	=33
0r	0A	1r	0e]
.	.	[1c	.
=34	=34	=34	=34
1.F	1r	2c]	0r
.	.	2B	.
.	1c	2A	.
2E	.	2G	.
=35	=35	=35	=35
1D	2B	1F	0r
.	1A	.	.
1BB	.	1D	.
.	2G#i	.	.
=36	=36	=36	=36
1AA	0A	1E	1.cc
[1F	.	1r	.
.	.	.	2b
=37	=37	=37	=37
2F]	0r	1c	1a
2E	.	.	.
1D	.	2B	1f
.	.	[2A	.
=38	=38	=38	=38
1C	1.c	2A]	1.e
.	.	2G	.
1AA	.	2.A	.
.	2B	.	4d
.	.	4B	4e
=39	=39	=39	=39
2r	1A	1c	2f
2.c	.	.	1e
.	1F	1A	.
4B	.	.	.
[2A	.	.	2d
=40	=40	=40	=40
2A]	1E	1B	1e
2G	.	.	.
[1A	[1e	2.c	1r
.	.	4d	.
=41	=41	=41	=41
2A]	1e]	4e	1cc
.	.	4f	.
2E	.	2.g	.
2G	2d	.	2b
.	.	4f	.
2A	2c	4e	[2a
.	.	4d	.
=42	=42	=42	=42
1E	1B	1e	2a]
.	.	.	2g#i
[1AA	[1A	1e	[1a
=43	=43	=43	=43
0AA_	0A]	2r	0a_
.	.	2A	.
.	.	1e	.
=44	=44	=44	=44
1AA]	1r	1e	1a]
1r	1D	1f	1r
=45	=45	=45	=45
0r	1A	1.e	0r
.	1A	.	.
.	.	2c	.
=46	=46	=46	=46
0r	1B-i	1d	2r
.	.	.	2d
.	[1A	1e	1a
=47	=47	=47	=47
0r	2A]	2A	1a
.	2F	4f	.
.	.	4e	.
.	1G	4d	1b-i
.	.	4c	.
.	.	[2d	.
=48	=48	=48	=48
1r	1A	2d]	1.a
.	.	2c	.
1D	1D	1d	.
.	.	.	2f
=49	=49	=49	=49
1E	1r	2B	1g
.	.	1c	.
1F	1A	.	1a
.	.	[2d	.
=50	=50	=50	=50
1G	1B	4d]	1d
.	.	4c	.
.	.	2.B	.
[1E	2G	.	[1g
.	.	4A	.
.	2A	4G	.
.	.	4F	.
=51	=51	=51	=51
2E]	4B	2E	1g]
.	4G	.	.
2C	4c	2e	.
.	4B	.	.
1D	4A	2.d	1f
.	4G	.	.
.	[2A	.	.
.	.	4c	.
=52	=52	=52	=52
1E	2A]	1B	0e
.	2G#i	.	.
[1AA	[1A	[1A	.
=53	=53	=53	=53
0AA_	1A]	1A]	2r
.	.	.	2e
.	1r	1r	2e
.	.	.	2e
=54	=54	=54	=54
1AA]	0r	2r	1a
.	.	2A	.
1r	.	2A	1a
.	.	2A	.
=55	=55	=55	=55
0r	0r	1e	2.g
.	.	.	4f
.	.	2e	2g
.	.	[2f	[2a
=56	=56	=56	=56
0r	1D	4f]	4a]
.	.	4e	4g
.	.	4d	4f
.	.	4c	4e
.	2D	1d	1f
.	2D	.	.
=57	=57	=57	=57
1AA	1A	1.c	[0e
2AA	1A	.	.
2AA	.	4B	.
.	.	4A	.
=58	=58	=58	=58
1E	2.G	1B	1e]
.	4F	.	.
2E	2G	1r	2r
[2F	[2A	.	2a
=59	=59	=59	=59
4F]	4A]	2r	2f
4E	4G	.	.
4D	4F	2D	2.a
4C	4E	.	.
1D	1F	2D	.
.	.	.	4g
.	.	2D	4a
.	.	.	4b
=60	=60	=60	=60
2AA	0E	1A	2cc
2AA	.	.	2a
2AA	.	1A	2cc
2AA	.	.	2cc
=61	=61	=61	=61
1E	0r	2.G	1b
.	.	4F	.
2E	.	2G	2r
[2F	.	[2A	2a
=62	=62	=62	=62
4F]	2r	4A]	2f
4E	.	4G	.
4D	2D	4F	2.a
4C	.	4E	.
1D	2D	1F	.
.	.	.	4g
.	2D	.	4a
.	.	.	4b
=63	=63	=63	=63
0AA	1A	0E	2cc
.	.	.	2a
.	1A	.	1cc
=64	=64	=64	=64
0r	2.G	4E	1b
.	.	4F	.
.	.	4G	.
.	4F	4A	.
.	2G	2B	2r
.	[2A	[2c	[2e
=65	=65	=65	=65
1r	4A]	4c]	2e]
.	4G	4B	.
.	4F	4A	2e
.	4E	4G	.
[1A	1F	1A	1d
=66	=66	=66	=66
2A]	0E	0B	1e
2A	.	.	.
1G	.	.	1r
=67	=67	=67	=67
4A	2r	1c	0r
4G	.	.	.
4F	1c	.	.
4E	.	.	.
4D	.	2r	.
4C	.	.	.
4BB	2A	[2d	.
4AA	.	.	.
=68	=68	=68	=68
1BB	1G	2d]	1r
.	.	2d	.
1AA	[1A	1c	[1a
=69	=69	=69	=69
1D	1A]	2.d	2a]
.	.	.	2a
.	.	4c	.
1E	1r	4B	1g
.	.	4A	.
.	.	2B	.
=70	=70	=70	=70
1.F	1r	1A	1a
.	1A	1r	1r
2E	.	.	.
=71	=71	=71	=71
2D	1A	1r	2r
2C	.	.	2a
1BB	1G	1d	1b
=72	=72	=72	=72
1AA	1A	1e	1.cc
1r	1r	[1f	.
.	.	.	2b
=73	=73	=73	=73
1r	1r	2f]	2a
.	.	2e	2g
1D	2r	2d	1f
.	[2A	2c	.
=74	=74	=74	=74
1E	2A]	1B	1e
.	2G	.	.
[1F	2.c	1A	1r
.	4B	.	.
=	=	=	=
2F]	2A	1r	1r
2E	2G	.	.
2D	4F	1r	1a
.	4E	.	.
2C	1A	.	.
1BB	.	1D	1b
.	2G#i	.	.
=75	=75	=75	=75
0AA	1A	0E	1.cc
.	1r	.	.
.	.	.	2b
=76	=76	=76	=76
0D	1A	0F	2a
.	.	.	2g
.	1B	.	1f
=77	=77	=77	=77
0C	1.c	0G	0e
.	2B	.	.
=78	=78	=78	=78
0D	2A	2F	1.f
.	2G	2G	.
.	1F	1A	.
.	.	.	4e
.	.	.	4d
=79	=79	=79	=79
1AA	1E	1A	1c
1r	1r	1r	1r
=80	=80	=80	=80
0AA	0A	0c	0e
=81	=81	=81	=81
1FF	1A	1c	1f
1GG	2.G	1B	2e
.	.	.	[2d
.	4F	.	.
=82	=82	=82	=82
0AA	2E	0A	2d]
.	2D	.	4c#i
.	.	.	4B
.	1E	.	1c#i
=83	=83	=83	=83
00Dl	00Dl	00Al	00dl
==	==	==	==
*-	*-	*-	*-
!!!system-decoration: [*]
!!!RDF**kern: i = editorial accidental
!!!RDF**kern: l = terminal long
!!!ENC: Benjamin Ory
!!!END: 2022/6/14
!!!EED: Benjamin Ory
!!!EEV: 2022/06/14
!!!YEC: Copyright 2022 Benjamin Ory, All Rights Reserved
!!!ONB: Translated from MusicXML on 2022/06/14
